src/assets/icons/Reportsicon.svg

<svg width="25" height="32" viewBox="0 0 25 32" fill="none" xmlns="http://www.w3.org/2000/svg">
<path d="M14.6572 0C15.9275 0 17.122 0.494416 18.0205 1.39258L23.6084 6.98047C24.5056 7.87798 25 9.0722 25 10.3428V26.3125C25 28.9345 22.8672 31.0684 20.2451 31.0684H4.75488C2.13284 31.0684 0 28.9345 0 26.3125V4.75488C0 2.13315 2.13285 0 4.75488 0H14.6572ZM4.75488 2.02051C3.24715 2.02051 2.02051 3.24746 2.02051 4.75488V26.3125C2.02051 27.8202 3.24715 29.0469 4.75488 29.0469H20.2451C21.7529 29.0469 22.9795 27.8202 22.9795 26.3125V10.3428C22.9795 10.1593 22.9618 9.97863 22.9268 9.80273H19.9531C18.1506 9.80268 16.5786 8.79455 15.7725 7.3125L12.3545 10.7305C12.1646 10.9203 11.9066 11.0264 11.6396 11.0264C11.6226 11.0264 11.6049 11.0263 11.5879 11.0254C11.3018 11.0106 11.0361 10.8746 10.8555 10.6523L9.39453 8.85059L8.21289 10.0312C7.81829 10.4259 7.17886 10.4257 6.78418 10.0312C6.39021 9.63666 6.38974 8.99691 6.78418 8.60254L8.75879 6.62891C8.96104 6.42682 9.24124 6.31524 9.52539 6.33496C9.81134 6.34988 10.0772 6.48485 10.2578 6.70703L11.7188 8.50879L15.1982 5.02832V2.07422C15.0221 2.03915 14.841 2.02051 14.6572 2.02051H4.75488ZM17.2188 5.04688C17.2188 6.55457 18.4454 7.78118 19.9531 7.78125H21.5508L17.2188 3.44922V5.04688Z" fill="black"/>
<path d="M14.6572 0C15.9275 0 17.122 0.494416 18.0205 1.39258L23.6084 6.98047C24.5056 7.87798 25 9.0722 25 10.3428V26.3125C25 28.9345 22.8672 31.0684 20.2451 31.0684H4.75488C2.13284 31.0684 0 28.9345 0 26.3125V4.75488C0 2.13315 2.13285 0 4.75488 0H14.6572ZM4.75488 2.02051C3.24715 2.02051 2.02051 3.24746 2.02051 4.75488V26.3125C2.02051 27.8202 3.24715 29.0469 4.75488 29.0469H20.2451C21.7529 29.0469 22.9795 27.8202 22.9795 26.3125V10.3428C22.9795 10.1593 22.9618 9.97863 22.9268 9.80273H19.9531C18.1506 9.80268 16.5786 8.79455 15.7725 7.3125L12.3545 10.7305C12.1646 10.9203 11.9066 11.0264 11.6396 11.0264C11.6226 11.0264 11.6049 11.0263 11.5879 11.0254C11.3018 11.0106 11.0361 10.8746 10.8555 10.6523L9.39453 8.85059L8.21289 10.0312C7.81829 10.4259 7.17886 10.4257 6.78418 10.0312C6.39021 9.63666 6.38974 8.99691 6.78418 8.60254L8.75879 6.62891C8.96104 6.42682 9.24124 6.31524 9.52539 6.33496C9.81134 6.34988 10.0772 6.48485 10.2578 6.70703L11.7188 8.50879L15.1982 5.02832V2.07422C15.0221 2.03915 14.841 2.02051 14.6572 2.02051H4.75488ZM17.2188 5.04688C17.2188 6.55457 18.4454 7.78118 19.9531 7.78125H21.5508L17.2188 3.44922V5.04688Z" stroke="black"/>
<path d="M4.97521 14.3265H14.7456C15.3036 14.3265 15.7557 13.8742 15.7557 13.3161C15.7557 12.758 15.3036 12.3057 14.7456 12.3057H5.9853V5.03377C5.9853 4.4757 5.53328 4.02338 4.97521 4.02338C4.41713 4.02338 3.96512 4.4757 3.96512 5.03377V13.3161C3.96512 13.8742 4.41713 14.3265 4.97521 14.3265Z" fill="black"/>
<path d="M4.97521 19.8552H14.7456C15.3036 19.8552 15.7557 19.4029 15.7557 18.8448C15.7557 18.2867 15.3036 17.8344 14.7456 17.8344H4.97521C4.41713 17.8344 3.96512 18.2867 3.96512 18.8448C3.96512 19.4029 4.41713 19.8552 4.97521 19.8552Z" fill="black"/>
<path d="M17.7789 22.0453H5.08559C4.52751 22.0453 4.0755 22.4976 4.0755 23.0557C4.0755 23.6138 4.52751 24.0661 5.08559 24.0661H17.7789C18.337 24.0661 18.789 23.6138 18.789 23.0557C18.789 22.4976 18.337 22.0453 17.7789 22.0453Z" fill="black"/>
</svg>

<?xml version="1.0" encoding="UTF-8"?><svg id="Layer_1" xmlns="http://www.w3.org/2000/svg" xmlns:xlink="http://www.w3.org/1999/xlink" viewBox="0 0 25 32"><defs><style>.cls-1{fill:none;}</style><symbol id="New_Symbol" viewBox="0 0 25 31.07"><path d="M14.66,0c1.27,0,2.46.49,3.36,1.39l5.59,5.59c.9.9,1.39,2.09,1.39,3.36v15.97c0,2.62-2.13,4.76-4.75,4.76H4.75c-2.62,0-4.75-2.13-4.75-4.76V4.75C0,2.13,2.13,0,4.75,0h9.91ZM4.75,2.02c-1.51,0-2.73,1.23-2.73,2.73v21.56c0,1.51,1.23,2.73,2.73,2.73h15.49c1.51,0,2.73-1.23,2.73-2.73v-15.97c0-.18-.02-.36-.05-.54h-2.97c-1.8,0-3.37-1.01-4.18-2.49l-3.42,3.42c-.19.19-.45.3-.71.3h-.05c-.29-.01-.55-.15-.73-.37l-1.46-1.8-1.18,1.18c-.39.39-1.03.39-1.43,0-.39-.39-.39-1.03,0-1.43l1.97-1.97c.2-.2.48-.31.77-.29.29.01.55.15.73.37l1.46,1.8,3.48-3.48v-2.95c-.18-.04-.36-.05-.54-.05H4.75v-.02ZM17.22,5.05c0,1.51,1.23,2.73,2.73,2.73h1.6l-4.33-4.33v1.6Z"/><path class="cls-1" d="M14.66,0c1.27,0,2.46.49,3.36,1.39l5.59,5.59c.9.9,1.39,2.09,1.39,3.36v15.97c0,2.62-2.13,4.76-4.75,4.76H4.75c-2.62,0-4.75-2.13-4.75-4.76V4.75C0,2.13,2.13,0,4.75,0h9.91ZM4.75,2.02c-1.51,0-2.73,1.23-2.73,2.73v21.56c0,1.51,1.23,2.73,2.73,2.73h15.49c1.51,0,2.73-1.23,2.73-2.73v-15.97c0-.18-.02-.36-.05-.54h-2.97c-1.8,0-3.37-1.01-4.18-2.49l-3.42,3.42c-.19.19-.45.3-.71.3h-.05c-.29-.01-.55-.15-.73-.37l-1.46-1.8-1.18,1.18c-.39.39-1.03.39-1.43,0-.39-.39-.39-1.03,0-1.43l1.97-1.97c.2-.2.48-.31.77-.29.29.01.55.15.73.37l1.46,1.8,3.48-3.48v-2.95c-.18-.04-.36-.05-.54-.05H4.75v-.02ZM17.22,5.05c0,1.51,1.23,2.73,2.73,2.73h1.6l-4.33-4.33v1.6Z"/><path d="M4.98,14.33h9.77c.56,0,1.01-.45,1.01-1.01s-.45-1.01-1.01-1.01H5.99v-7.27c0-.56-.45-1.01-1.01-1.01s-1.01.45-1.01,1.01v8.28c0,.56.45,1.01,1.01,1.01Z"/><path d="M4.98,19.86h9.77c.56,0,1.01-.45,1.01-1.01s-.45-1.01-1.01-1.01H4.98c-.56,0-1.01.45-1.01,1.01s.45,1.01,1.01,1.01Z"/><path d="M17.78,22.05H5.09c-.56,0-1.01.45-1.01,1.01s.45,1.01,1.01,1.01h12.69c.56,0,1.01-.45,1.01-1.01s-.45-1.01-1.01-1.01Z"/></symbol></defs><use width="25" height="31.07" xlink:href="#New_Symbol"/></svg>
